rospo-icon-theme-classic-common/24x24/apps/outlast.svg

<svg height="24" viewBox="0 0 24 24" width="24" xmlns="http://www.w3.org/2000/svg"><path d="m12 2.5c-5.1012485-.0000087-8.9999228 4.635952-9 10 .0000772 5.364048 3.8987515 10.000008 9 10 5.101248.000008 8.999923-4.635952 9-10-.000077-5.364048-3.898752-10.0000087-9-10z" opacity=".2"/><path d="m12 2c-5.1012485-.0000088-8.9999228 4.635952-9 10 .0000772 5.364048 3.8987515 10.000008 9 10 5.101248.000008 8.999923-4.635952 9-10-.000077-5.364048-3.898752-10.0000088-9-10z" fill="#3a4b37"/><path d="m12 4.5a6.9999895 8.0001315 0 0 0 -7 8 6.9999895 8.0001315 0 0 0 7 8 6.9999895 8.0001315 0 0 0 7-8 6.9999895 8.0001315 0 0 0 -7-8zm0 3a3.9998858 4.9999448 0 0 1 4 5 3.9998858 4.9999448 0 0 1 -4 5 3.9998858 4.9999448 0 0 1 -4-5 3.9998858 4.9999448 0 0 1 4-5z" opacity=".2"/><path d="m12 4a6.9999895 8.0001315 0 0 0 -7 8 6.9999895 8.0001315 0 0 0 7 8 6.9999895 8.0001315 0 0 0 7-8 6.9999895 8.0001315 0 0 0 -7-8zm0 3a3.9998858 4.9999448 0 0 1 4 5 3.9998858 4.9999448 0 0 1 -4 5 3.9998858 4.9999448 0 0 1 -4-5 3.9998858 4.9999448 0 0 1 4-5z" fill="#a1eaa4"/><path d="m12 2c-5.1012485-.0000088-8.9999228 4.635952-9 10 .0000012.08415.00981.166225.011719.25.1198224-5.2564675 3.9670585-9.7500086 8.988281-9.75 5.021222-.0000086 8.868458 4.4935325 8.988281 9.75.00191-.083775.011718-.165851.011719-.25-.000077-5.364048-3.898752-10.0000088-9-10z" fill="#fff" opacity=".1"/><path d="m12 4a6.9999895 8.0001315 0 0 0 -7 8 6.9999895 8.0001315 0 0 0  .0097656.207031 6.9999895 8.0001315 0 0 1 6.9902344-7.707031 6.9999895 8.0001315 0 0 1 6.990234 7.792969 6.9999895 8.0001315 0 0 0  .009766-.292969 6.9999895 8.0001315 0 0 0 -7-8zm3.992188 8.207031a3.9998858 4.9999448 0 0 1 -3.992188 4.792969 3.9998858 4.9999448 0 0 1 -3.9921875-4.707031 3.9998858 4.9999448 0 0 0 -.0078125.207031 3.9998858 4.9999448 0 0 0 4 5 3.9998858 4.9999448 0 0 0 4-5 3.9998858 4.9999448 0 0 0 -.007812-.292969z" fill="#fff" opacity=".1"/></svg>

<svg xmlns="http://www.w3.org/2000/svg" width="24" height="24" version="1.1" viewBox="0 0 24 24">
 <path style="opacity:0.2" d="m 12,2.5 c -5.1012485,-8.7e-6 -8.9999228,4.635952 -9,10 7.72e-5,5.364048 3.8987515,10.000008 9,10 5.101248,8e-6 8.999923,-4.635952 9,-10 -7.7e-5,-5.364048 -3.898752,-10.0000087 -9,-10 z"/>
 <path style="fill:#3a4b37" d="m 12,2 c -5.1012485,-8.8e-6 -8.9999228,4.635952 -9,10 7.72e-5,5.364048 3.8987515,10.000008 9,10 5.101248,8e-6 8.999923,-4.635952 9,-10 C 20.999923,6.635952 17.101248,1.9999912 12,2 Z"/>
 <path style="opacity:0.2" d="m 12,4.5 a 6.9999895,8.0001315 0 0 0 -7,8 6.9999895,8.0001315 0 0 0 7,8 6.9999895,8.0001315 0 0 0 7,-8 6.9999895,8.0001315 0 0 0 -7,-8 z m 0,3 a 3.9998858,4.9999448 0 0 1 4,5 3.9998858,4.9999448 0 0 1 -4,5 3.9998858,4.9999448 0 0 1 -4,-5 3.9998858,4.9999448 0 0 1 4,-5 z"/>
 <path style="fill:#a1eaa4" d="M 12 4 A 6.9999895 8.0001315 0 0 0 5 12 A 6.9999895 8.0001315 0 0 0 12 20 A 6.9999895 8.0001315 0 0 0 19 12 A 6.9999895 8.0001315 0 0 0 12 4 z M 12 7 A 3.9998858 4.9999448 0 0 1 16 12 A 3.9998858 4.9999448 0 0 1 12 17 A 3.9998858 4.9999448 0 0 1 8 12 A 3.9998858 4.9999448 0 0 1 12 7 z"/>
 <path style="opacity:0.1;fill:#ffffff" d="m 12,2 c -5.1012485,-8.8e-6 -8.9999228,4.635952 -9,10 1.2e-6,0.08415 0.00981,0.166225 0.011719,0.25 C 3.1315414,6.9935325 6.9787775,2.4999914 12,2.5 c 5.021222,-8.6e-6 8.868458,4.4935325 8.988281,9.75 C 20.990191,12.166225 20.999999,12.084149 21,12 20.999923,6.635952 17.101248,1.9999912 12,2 Z"/>
 <path style="opacity:0.1;fill:#ffffff" d="M 12 4 A 6.9999895 8.0001315 0 0 0 5 12 A 6.9999895 8.0001315 0 0 0 5.0097656 12.207031 A 6.9999895 8.0001315 0 0 1 12 4.5 A 6.9999895 8.0001315 0 0 1 18.990234 12.292969 A 6.9999895 8.0001315 0 0 0 19 12 A 6.9999895 8.0001315 0 0 0 12 4 z M 15.992188 12.207031 A 3.9998858 4.9999448 0 0 1 12 17 A 3.9998858 4.9999448 0 0 1 8.0078125 12.292969 A 3.9998858 4.9999448 0 0 0 8 12.5 A 3.9998858 4.9999448 0 0 0 12 17.5 A 3.9998858 4.9999448 0 0 0 16 12.5 A 3.9998858 4.9999448 0 0 0 15.992188 12.207031 z"/>
</svg>
